X:24
T:Dermot O'Dowd
R:air
B:Bunting 1796
Z:id:hn-air-24
M:3/4
L:1/8
Q:1/4=160
K:Ador
AG | E2A2A2 | A2 BAGA | B2 Bd BA | G2E2D2 |
E2A2A2 | A2 BAGA | B2 d2 ef | g4 || 
ed | edegab | a2 bagf | g2 gaba | g2e2d2 |
e2 eged | B2 B2 A>G | E2A2A2 | B2 A2 || 

